src/main/resources/icons/plugins/resharper/Options/Options.svg

<?xml version="1.0" encoding="UTF-8" standalone="no"?>
<svg
   xmlns:dc="http://purl.org/dc/elements/1.1/"
   xmlns:cc="http://creativecommons.org/ns#"
   xmlns:rdf="http://www.w3.org/1999/02/22-rdf-syntax-ns#"
   xmlns:svg="http://www.w3.org/2000/svg"
   xmlns="http://www.w3.org/2000/svg"
   xmlns:sodipodi="http://sodipodi.sourceforge.net/DTD/sodipodi-0.dtd"
   xmlns:inkscape="http://www.inkscape.org/namespaces/inkscape"
   version="1.1"
   width="16px"
   height="16px"
   viewBox="0 0 24 24"
   id="svg4"
   sodipodi:docname="settings.svg"
   inkscape:version="0.92.3 (unknown)">
  <metadata
     id="metadata10">
    <rdf:RDF>
      <cc:Work
         rdf:about="">
        <dc:format>image/svg+xml</dc:format>
        <dc:type
           rdf:resource="http://purl.org/dc/dcmitype/StillImage" />
      </cc:Work>
    </rdf:RDF>
  </metadata>
  <defs
     id="defs8" />
  <sodipodi:namedview
     pagecolor="#ffffff"
     bordercolor="#666666"
     borderopacity="1"
     objecttolerance="10"
     gridtolerance="10"
     guidetolerance="10"
     inkscape:pageopacity="0"
     inkscape:pageshadow="2"
     inkscape:window-width="853"
     inkscape:window-height="491"
     id="namedview6"
     showgrid="false"
     inkscape:zoom="7.375"
     inkscape:cx="-2.996068"
     inkscape:cy="14.195367"
     inkscape:window-x="67"
     inkscape:window-y="27"
     inkscape:window-maximized="0"
     inkscape:current-layer="svg4" />
  <path
     inkscape:connector-curvature="0"
     style="fill:#c792ea;fill-opacity:1;stroke-width:1"
     d="m 10.000859,1.9996875 c -0.2499996,0 -0.4609763,0.1789454 -0.5009762,0.4189452 L 9.1307421,5.07 C 8.5007419,5.3199999 7.9603129,5.6585156 7.4403119,6.0485155 L 4.9500779,5.0494922 c -0.22,-0.09 -0.489375,-2.735e-4 -0.609375,0.2197266 l -2.000977,3.4599608 c -0.13,0.2200001 -0.06988,0.4886718 0.120117,0.638672 l 2.112305,1.6318364 c -0.04,0.34 -0.07031,0.669023 -0.07031,0.999023 0,0.33 0.03031,0.649727 0.07031,0.969727 l -2.112305,1.661133 c -0.19,0.15 -0.250117,0.418672 -0.120117,0.638672 l 2.000977,3.459961 c 0.12,0.22 0.389375,0.299727 0.609375,0.219726 l 2.490235,-1.007811 c 0.52,0.399999 1.060429,0.737304 1.6904293,0.987304 l 0.3691407,2.651367 c 0.04,0.24 0.2509766,0.418946 0.5009761,0.418946 h 3.999024 c 0.25,0 0.460977,-0.178946 0.500977,-0.418946 L 14.87,18.927423 c 0.630001,-0.260001 1.17043,-0.587305 1.69043,-0.987304 l 2.490234,1.007811 c 0.220001,0.08 0.489376,2.74e-4 0.609375,-0.219726 l 2.000976,-3.459961 c 0.12,-0.22 0.06989,-0.488672 -0.12012,-0.638672 l -2.109372,-1.661133 c 0.04001,-0.32 0.0703,-0.639727 0.0703,-0.969727 0,-0.33 -0.03031,-0.659023 -0.0703,-0.999023 l 2.109375,-1.6318364 c 0.190001,-0.1500001 0.240117,-0.4186719 0.12012,-0.6386719 L 19.660039,5.2692188 C 19.54004,5.0492187 19.270665,4.9594922 19.050664,5.0494922 L 16.56043,6.0485155 C 16.04043,5.6585156 15.500001,5.3199999 14.87,5.07 L 14.500859,2.4186327 c -0.04,-0.2399998 -0.250976,-0.4189452 -0.500976,-0.4189452 z M 9.1864062,8.5592577 c 0.2637285,-0.024897 0.5534109,-0.00426 0.8671878,0.067383 1.088755,0.2487516 1.832694,0.7399183 2.053711,0.8613282 0.220875,-0.1215176 0.967887,-0.6127192 2.05664,-0.8613283 2.510178,-0.5732015 3.475333,2.1933314 1.995118,4.2802744 -1.322387,1.518494 -2.696953,2.218714 -4.051758,3.117187 C 10.752466,15.125629 9.3808279,14.425409 8.0584769,12.906915 6.7632869,11.08084 7.3403069,8.7335353 9.1864062,8.5592577 Z"
     id="path2-3" />
</svg>

<?xml version="1.0" encoding="UTF-8"?><!DOCTYPE svg PUBLIC "-//W3C//DTD SVG 1.1//EN"
        "http://www.w3.org/Graphics/SVG/1.1/DTD/svg11.dtd">
<svg xmlns="http://www.w3.org/2000/svg" xmlns:xlink="http://www.w3.org/1999/xlink"
     version="1.1" width="16px" height="16px"
     viewBox="0 0 24 24">
    <path fill="#C792EA"
          d="M12,15.5A3.5,3.5 0 0,1 8.5,12A3.5,3.5 0 0,1 12,8.5A3.5,3.5 0 0,1 15.5,12A3.5,3.5 0 0,1 12,15.5M19.43,12.97C19.47,12.65 19.5,12.33 19.5,12C19.5,11.67 19.47,11.34 19.43,11L21.54,9.37C21.73,9.22 21.78,8.95 21.66,8.73L19.66,5.27C19.54,5.05 19.27,4.96 19.05,5.05L16.56,6.05C16.04,5.66 15.5,5.32 14.87,5.07L14.5,2.42C14.46,2.18 14.25,2 14,2H10C9.75,2 9.54,2.18 9.5,2.42L9.13,5.07C8.5,5.32 7.96,5.66 7.44,6.05L4.95,5.05C4.73,4.96 4.46,5.05 4.34,5.27L2.34,8.73C2.21,8.95 2.27,9.22 2.46,9.37L4.57,11C4.53,11.34 4.5,11.67 4.5,12C4.5,12.33 4.53,12.65 4.57,12.97L2.46,14.63C2.27,14.78 2.21,15.05 2.34,15.27L4.34,18.73C4.46,18.95 4.73,19.03 4.95,18.95L7.44,17.94C7.96,18.34 8.5,18.68 9.13,18.93L9.5,21.58C9.54,21.82 9.75,22 10,22H14C14.25,22 14.46,21.82 14.5,21.58L14.87,18.93C15.5,18.67 16.04,18.34 16.56,17.94L19.05,18.95C19.27,19.03 19.54,18.95 19.66,18.73L21.66,15.27C21.78,15.05 21.73,14.78 21.54,14.63L19.43,12.97Z"/>
</svg>
